X:14
T:Heili Karjalasta
M:4/4
L:1/4
Q:1/4=240
S:Girlfriend from Karelia
R:humppa
K:Dm
"Dm" A A B A | F3 z | "A7" G G A G | E3 z |
"Dm" F F G A | G F/2F/2 E D | "A7" E3 ^C | A,3 z | !
"Dm" A A B A | F3 z | "A7" G G A G | E3 z |
"Dm" F F E D | "Gm" G G F E | "A7" A>^G A B | A A =B ^c | !
"Dm" d z/2 A/2 ^G A | "Gm" c B A G | "Dm" F z (D2 | D) z  D E |
F z F2 | "Gm" G>F E D | "A7" (E4 | E) z A2 | !
"Dm" d z/2 A/2 ^G A | "Gm" c B A G | "Dm" F z (D2 | D) z  D E |
F2 E D | "A7" E D>^C D | "Dm" (D4 | D) z/2 D/2 ^C D | !
"A7" E>E F G | A>A =B ^c | "Dm" d>^c d =c | "Gm" B A G2 |
"C7" c>=B c _B | A G F G | "A7" (A4 | A) z A2 | !
"Dm" d z/2 A/2 ^G A | "Gm" c B A G | "Dm" F z (D2 | D) z  D E |
F2 E D | "A7" E D>^C D | "Dm" (D4 | D) z z2 ||
